Catalina-light/actions/16/distribute-randomize.svg

<svg xmlns="http://www.w3.org/2000/svg" width="16" height="16" viewBox="0 0 16 16">
 <defs>
  <style id="current-color-scheme" type="text/css">
   .ColorScheme-Text { color:#5c616c; } .ColorScheme-Highlight { color:#5294e2; }
  </style>
 </defs>
 <path style="fill:currentColor" class="ColorScheme-Text" d="M 10 1.0097656 L 10 5.0097656 L 15 5.0097656 L 15 1.0097656 L 10 1.0097656 z M 0 2.0097656 L 0 6.0097656 L 5 6.0097656 L 5 2.0097656 L 0 2.0097656 z M 11 6.0097656 L 11 10.009766 L 16 10.009766 L 16 6.0097656 L 11 6.0097656 z M 5 7.0097656 L 5 11.009766 L 10 11.009766 L 10 7.0097656 L 5 7.0097656 z M 0 12.009766 L 0 16.009766 L 5 16.009766 L 5 12.009766 L 0 12.009766 z M 6 12.009766 L 6 16.009766 L 11 16.009766 L 11 12.009766 L 6 12.009766 z"/>
</svg>

<svg width="16" height="16" viewBox="0 0 16 16" xmlns="http://www.w3.org/2000/svg">
<defs>
<style id="current-color-scheme" type="text/css">.ColorScheme-Text { color:#5c616c; } .ColorScheme-Highlight { color:#5294e2; }</style>
</defs>
<path class="ColorScheme-Text" d="m10 1.0098v4h5v-4h-5zm-10 1v4h5v-4h-5zm11 4v4h5v-4h-5zm-6 1v4h5v-4h-5zm-5 5v4h5v-4h-5zm6 0v4h5v-4h-5z" fill="#363636"/>
</svg>
